X:1
T:Big Rock Candy Mountain
C:Harry "Haywire Mac" McClintock
S:jaybuckey.com, Tom Skinner
M:4/4
K:G
L:1/4
P:A (Verse 1)
F | "G"G G E D | G G E D/2D/2 | G G "D"A A | "G"B d2
w:1.~One eve-ning as the sun went down, and the jun-gle fire was burn-ing,
D/2D/2 | G G/2G/2 A A | B G2 D/2D/2 | G G "D"A G | "G"B d2
w:Down the track came a ho-bo hik-ing, and he said, "Boys, I'm not turn-ing.
d | "C"e/2e/2 e/2e/2 "G"d d | "C"e e "G"d>d | "C"e d c B | "D7"A D2 z/2
w:I'm head-ed for a land that's far a-way be-side the crys-tal foun-tains.
D/2 | "G"G G E D | G G E z/2 D/2 | G G "D7"A A | "G"B G2 |]
w:So, come with me. We値l go and see the Big Rock Cand-y Moun-tains."
%
P:B (Addl. Verses)
B/2A/2 | "G"G G G A | B d2 d/2d/2 | "C"e e g g | "G"d3
w:2.~In the Big Rock Cand-y Moun-tains, there's a land that's fair and bright,
d/2d/2 | "C"e e g e | "G"d B2 B/2B/2 | e d c B | "D7"A3
w:where the hand-outs grow on bush-es, and you sleep out ev-'ry night,
A/2A/2 | "G"G G G A | B d2 d/2d/2 | "C"e e g g | "G"d3
w:where the box-cars all are emp-ty, and the sun shines ev-'ry day
d/2d/2 | "C"e e/2e/2 "G"d d/2d/2 | "C"e/2e/2 e "G"d
w:on the birds and the bees and the cig-a-rette trees,
>d |"C"e e "G"d d/2d/2 | "C"e e "G"d
w:the lemo-nade springs where the blue-bird sings,
B/2c/2 | "D7"d d A c | "G"B G3 |]
w:in the Big Rock Cand-y Moun-tains.

%---------------------------------------------------------------------

